**kern	**text
*clefG2	*
*k[b-e-a-d-g-]	*
*M4/4	*
*MM129	*
=1	=1
1r	.
=2	=2
1r	.
=3	=3
1r	.
=4	=4
4r	.
4b-	- こ
4a-	o こ
4g-	o ろ弱
=5	=5
8.e-L	o ご囁
[16b-Jk	o と
4b-]	.
8b-L	o R吸
8b-	- か
8a-	a ら
8g-J	a だ弱
=6	=6
8.e-L	a ご囁
[16b-Jk	o と
4b-]	.
8b-L	o R吸↑
8b-	- ぜ
8a-	e ん
8g-J	n ぶ弱
=7	=7
8.d-L	u き囁
[16a-Jk	i を
8a-L]	.
8a-J	o く
8a-L	u の
8a-J	o な
8d-L	a か囁
16d-L	a の囁
[16fJJ	o ま囁
=8	=8
8fL]	.
8e-	a ぼ弱
8f	o ろ
8e-J	o し
8e-L	i R吸
8b-	- ほ
8a-	o ん
8g-J	n と弱
=9	=9
8.e-L	o お囁
[16b-Jk	o の
4b-]	.
8b-L	o R吸↑
8b-	- あ
8a-	a い
8g-J	i じょ弱
=10	=10
8.e-L	o お囁
[16b-Jk	o が
4b-]	.
8b-L	a R吸↑
8b-J	- ゆ
8a-L	u び弱
16b-L	i さ
[16ddnJJ	a き囁
=11	=11
8ddL]	.
8b-	i か
8b-	a ら
8a-J	a な弱
8a-L	a が
8a-J	a れ
8b-L	e だ囁
16a-L	a し
[16g-JJ	i た弱
=12	=12
2.g-_	.
8g-L]	.
[8g-J	a R吸
=13	=13
2g-]	.
2r	.
=14	=14
2r	.
4r	.
16r	.
16fKL	- う弱
8ffJ	u う弱
=15	=15
[2ee-	u う弱
8ee-L]	.
16ffL	u う弱
16ee-JJ	u う弱
8dd-L	u う弱
[8b-J	u う
=16	=16
8b-]	.
[4.b-	u R吸
16b-]	.
16r	.
8r	.
4r	.
=17	=17
4r	.
8r	.
16r	.
16b-	- う弱
8ee-	u う弱
4dd-	u う弱
8cc-X	u う弱
=18	=18
16dd-LL	u いぇ
16cc-XJ	e え
8dd-J	e え
[4cc-	e え囁
8cc-]	.
[4.cc-	e R吸↓
=19	=19
4cc-]	.
4r	.
2r	.
=20	=20
2r	.
4r	.
8e-L	- と囁
16fL	o お囁
[16g-JJ	o く
=21	=21
4g-]	.
8g-L	u R吸↑
8g-J	- か
8g-L	a ら
8g-J	a み
8fL	i て弱
16d-L	e い囁
[16d-JJ	i た囁
=22	=22
8d-]	.
4.e-	a の
4e-	o R吸
8e-L	- か囁
16fL	a な囁
[16g-JJ	a し
=23	=23
4g-]	.
8g-L	i R吸↑
8g-J	- そ
8g-L	o お
8g-J	o な
8fL	a き
16d-L	i み弱
*clefF4	*
[16A-JJ	i の囁
=24	=24
8A-L]	.
[8B-J	o ふぇ弱
16B-LL]	.
16B-J	e い弱
8B-'J	i す弱
8r	.
*clefG2	*
8a-L	- そ
8a-	o ら
[8b-J	a の弱
=25	=25
8b-L]	.
8b-	o な
8a-	a み
[8g-J	i だ囁
8g-L]	.
8a-	a と
8a-	o R吸↑
8fJ	- お弱
=26	=26
8fL	o ん
8f	n な
8e-	a じ囁
8d-J	i ね囁
8d-L	e R吸↓
8d-	- お弱
8e-	o お
8d-J	o つ弱
=27	=27
8cL	u ぶ囁
8cJ	u の囁
16cKL	o あ囁
8c	a め囁
[16a-Jk	e が
4a-]	.
4a-	a R吸
=28	=28
8dnL	- あ弱
8dJ	a ふ弱
16dKL	u れ弱
8d	e だ弱
[16b-Jk	a す
8b-L_	.
32b-KL]	.
16.b-JJ	u R吸
8e-L	- ふ囁
16fL	u い囁
[16g-JJ	i に
=29	=29
4g-]	.
8g-L	i R吸
8g-J	- き
8g-L	i ず
8g-J	u い
8fL	i た弱
16d-L	a し囁
[16d-JJ	i せ囁
=30	=30
8d-]	.
4.e-	e ん
4e-	n R吸
8e-L	- は囁
16fL	a あ囁
[16g-JJ	a と
=31	=31
4g-]	.
8g-L	o R吸↑
8g-J	- い
8g-L	i き
8g-J	i お
8fL	o ひ弱
16d-L	i そ弱
[16A-JJ	o め囁
=32	=32
8A-]	.
4.B-	e た囁
8B-L	a R吸↑
8a-	- ひ
8a-	i ん
[8b-J	n や弱
=33	=33
8b-L]	.
8b-	a り
8a-	i と
[8g-J	o つ弱
8g-L]	.
8a-	u め
8a-	e R吸↑
[8fJ	- た
=34	=34
8fL]	.
8f	a い
8e-	i て弱
8d-J	e が弱
8d-L	a R吸↓
8d-	- と弱
8e-	o ま弱
8g-J	a ど
=35	=35
8g-L	o R吸↑
8d-	- き弱
8e-	i み弱
8g-J	i の
8g-L	o R吸↑
8d-	- ほ
8e-	o ほ弱
[8g-J	o に
=36	=36
4g-]	.
4f	i ふ弱
8e-	u れ囁
[4.f	e た
=37	=37
8f]	.
4f	a R吸↓
[8d-	- ざ囁
16d-]	.
16r	.
8g-	- と
8fL	o お
*clefF4	*
[8B-J	o に囁
=38	=38
4B-]	.
8B-L	i R吸2
8B-J	- の囁
8B-L	o み弱
*clefG2	*
8a-	i こ囁
8f	o ま
[8g-J	a れ
=39	=39
4g-]	.
8g-L	e R吸
8g-J	- わ
8g-L	a す
8e-	u れ囁
8g-	e て
[8gnJ	e し弱
=40	=40
8gL]	.
8gn	i ま
8g	a あ
8e-J	a た囁
8e-L	a R吸↓
[8e-J	- ぬ囁
16e-KL]	.
8.gJ	u く弱
=41	=41
8.a-L	u も
[16a-Jk	o り
8a-L]	.
8a-J	i が
8a-L	a R吸↓
[8e-J	- や囁
16e-KL]	.
8.a-J	a さ弱
=42	=42
8.anL	a し
[16aJk	i さ
8aL]	.
8aJ	a が
8aL	a R吸↓
[8e-J	- は囁
16e-KL]	.
8.aJ	a じ弱
=43	=43
1b-	i る
=44	=44
4dd-	u R吸↑
4b-	- こ
4a-	o こ
4g-	o ろ弱
=45	=45
8.e-L	o ご囁
[16b-Jk	o と
4b-]	.
8b-L	o R吸↑
8b-	- か
8a-	a ら
8g-J	a だ弱
=46	=46
8.e-L	a ご囁
[16b-Jk	o と
4b-]	.
8b-L	o R吸↑
8b-	- ぜ
8a-	e ん
8g-J	n ぶ弱
=47	=47
8.d-L	u き囁
[16a-Jk	i を
8a-L]	.
8a-J	o く
8a-L	u の
8a-J	o な
8d-L	a か囁
16d-L	a の囁
[16fJJ	o ま囁
=48	=48
8fL]	.
8e-	a ぼ弱
8f	o ろ
8e-J	o し弱
8e-L	i R吸
8b-	- ほ
8a-	o ん
8g-J	n と弱
=49	=49
8.e-L	o お囁
[16b-Jk	o の
4b-]	.
8b-L	o R吸↑
8b-	- あ
8a-	a い
8g-J	i じょ弱
=50	=50
8.e-L	o お囁
[16b-Jk	o が
4b-]	.
8b-L	a R吸↓
8b-J	- ゆ
8a-L	u び囁
16b-L	i さ
[16ddnJJ	a き弱
=51	=51
8ddL]	.
8b-	i か
8b-	a ら
8a-J	a な弱
8a-L	a が
8a-J	a れ
8b-L	e だ囁
16a-L	a し
[16g-JJ	i た
=52	=52
4.g-]	.
8g-	a R吸↓
8.b-L	- か
[16a-Jk	a お
8a-L]	.
8g-J	o あ弱
=53	=53
8.e-L	a げ囁
[16b-Jk	e て
4b-]	.
8b-L	e R吸↓
8b-	- ほ
8a-	o ほ
8g-J	o え弱
=54	=54
8.e-L	e め囁
[16b-Jk	e ば
4b-]	.
8b-L	a R吸↓
8b-	- え
8a-	e が
8g-J	a お弱
=55	=55
5d-	o と囁
5a-	o り
10a-	i も
8a-L	o ど
8a-J	o す
8d-L	u ま囁
16d-L	a ほ囁
[16fJJ	o お囁
=56	=56
8fL]	.
8e-	o に弱
8f	i な
[8e-J	a る弱
32e-KLL]	.
16.e-J	u R吸↑
8d-J	- こ囁
8e-L	o こ囁
8g-J	o ろ
=57	=57
[8b-L	o の
96b-LLL]	.
96b-JJJJ	o く
96r	.
32r	.
[16b-	- の
16b-]	.
96r	.
96b-	o く
96r	.
32r	.
8b-	- の
96r	.
96b-	o く
96r	.
32r	.
16r	.
8d-L	- ふ囁
8e-	u し囁
8g-J	i ぎ
=58	=58
96a-KLLL	i と
[48a-J	o り
16.a-_	.
96a-LL]	.
96a-JJJJ	i く
96r	.
32r	.
96a-KLLL	- と
[48a-	o り
32a-JJJ_	.
16a-LL_	.
96a-LL]	.
96a-JJJJ	i く
96r	.
32r	.
96a-KLLL	- と
[48a-J	o り
16.a-_	.
96a-LL]	.
96a-JJJJ	i く
96r	.
32r	.
16r	.
8d-L	- う囁
8e-	u ま囁
8g-J	a れ
=59	=59
4g-	e か
4e-	a わ弱
4d-	a れ囁
4e-	e る
=60	=60
8b-L	u わ↑
8b-	a R吸
8b-	- わ↑
8b-	a R吸
96b-KLL	- ふ
[48b-J	u り
16.b-]	.
16b-	i り
[16a-JJ	i とぅ
16a-LL]	.
16b-J	u も
[8e-J	o ろ囁
=61	=61
1e-]	.
=62	=62
2e-	o R吸↑
2r	.
=63	=63
1r	.
=64	=64
1r	.
=65	=65
1r	.
=66	=66
1r	.
=67	=67
1r	.
=68	=68
4r	.
4b-	- こ
4a-	o こ
4g-	o ろ弱
=69	=69
8.e-L	o ご囁
[16b-Jk	o と
4b-]	.
8b-L	o R吸↑
8b-	- か
8a-	a ら
8g-J	a だ弱
=70	=70
8.e-L	a ご囁
[16b-Jk	o と
4b-]	.
8b-L	o R吸↑
8b-	- ぜ
8a-	e ん
8g-J	n ぶ弱
=71	=71
5d-	u き囁
5a-	i を
10a-	o く
8a-L	u の
8a-J	o な
8d-L	a か囁
16d-L	a の囁
[16fJJ	o ま囁
=72	=72
8fL]	.
8e-	a ぼ弱
8f	o ろ
8e-J	o し弱
8e-L	i R吸
8b-	- ほ
8a-	o ん
8g-J	n と弱
=73	=73
8.e-L	o お囁
[16b-Jk	o の
4b-]	.
8b-L	o R吸↑
8b-	- あ
8a-	a い
8g-J	i じょ弱
=74	=74
8.e-L	o お囁
[16b-Jk	o が
4b-]	.
8b-L	a R吸↓
8b-J	- ゆ
8a-L	u び囁
16b-L	i さ
[16ddnJJ	a き弱
=75	=75
8ddL]	.
8b-	i か
8b-	a ら
8a-J	a な弱
8a-L	a が
8a-J	a れ
8b-L	e だ囁
16a-L	a し
[16g-JJ	i た
=76	=76
4.g-]	.
8g-	a R吸↓
5b-	- か
5a-	a お
10g-	o あ弱
=77	=77
9%2e-	a げ囁
[9%2b-	e て
18b-]	.
9.b-L	e R吸↓
9b-	- ほ
9a-	o ほ
9g-J	o え弱
=78	=78
9%2e-	e め囁
[9%2b-	e ば
18b-]	.
18r	.
9b-L	a R吸↓
9b-	- え
9a-	e が
9g-J	a お弱
=79	=79
5d-	o と囁
5a-	o り
[10a-	i も
28a-KLL]	.
14.a-J	o ど
7a-	o す
14.d-L	u ま囁
14d-	a ほ囁
[28fJJk	o お囁
=80	=80
*^	*
8fL]	4r	.
8e-J	.	o に弱
4f'	8r	i な
.	[8e-	a る弱
28r	16e-]	.
14.e-KL	.	u R吸↑
.	16r	.
.	8r	.
7d-	.	- こ囁
.	4r	.
14.e-L	.	o こ囁
14.g-JJ	.	o ろ
=81	=81	=81
8r	5b-	.
64r	.	.
128r	.	.
128b-	.	o く
32r	.	.
16r	.	.
.	5b-	- の
16r	.	.
64r	.	.
128r	.	.
128b-	.	o く
32r	.	.
8r	.	.
.	[10b-	- の
2r	48b-LLL]	.
.	96b-JJJk	o く
.	32r	.
.	16r	.
.	8d-L	- ふ囁
.	8e-	u し囁
.	[8g-J	i ぎ
=82	=82	=82
1r	96g-LLLL]	.
.	96a-	i と
.	[96a-JJ	o り
.	16.a-_	.
.	48a-L]	.
.	96a-JJJk	i く
.	32r	.
.	96r	.
.	96a-LLLL	- と
.	[96a-J	o り
.	32a-JJJ_	.
.	16a-LL_	.
.	48a-L]	.
.	96a-JJJk	i く
.	32r	.
.	96r	.
.	96a-LLLL	- と
.	[96a-JJ	o り
.	16.a-JJ_	.
.	48a-LLL]	.
.	96a-JJJk	i く
.	32r	.
.	16r	.
.	8d-L	- う囁
.	8e-	u ま囁
.	8g-J	a れ
*v	*v	*
=83	=83
4g-	e か
4e-	a わ弱
4d-	a れ囁
[4e-	e る
=84	=84
28e-KLL]	.
14.b-J	u わ↑
7b-	a R吸
14.b-L	- わ↑
14.b-	a R吸
56b-LL	- ふ
[56b-JJ	u り
14.b-]	.
14b-	i り
[28a-JJk	i とぅ
16a-LL]	.
16b-J	u も
[8e-J	o ろ囁
=85	=85
1e-]	.
=86	=86
2e-	o R吸↑
2r	.
==	==
*-	*-
